!!!COM: Gaspar van Weerbeke
!!!CDT: ~1450-~1517
!!!OTL: Credo
!!!AGN: Mass
!!!SCT: Gas0205
!!!SCA: Gas0205
!!!voices: 4
**kern	**text	**kern	**text	**kern	**text	**kern	**text
*part4	*part4	*part3	*part3	*part2	*part2	*part1	*part1
*staff4	*staff4	*staff3	*staff3	*staff2	*staff2	*staff1	*staff1
*I"Bassus	*	*I"Tenor	*	*I"Altus	*	*I"Superius	*
*I'B	*	*I'T	*	*I'A	*	*I'S	*
*clefF4	*	*clefGv2	*	*clefGv2	*	*clefG2	*
*k[b-]	*	*k[b-]	*	*k[b-]	*	*k[b-]	*
*M3/2	*	*M3/2	*	*M3/2	*	*M3/2	*
*omet(O)	*	*omet(O)	*	*omet(O)	*	*omet(O)	*
=1	=1	=1	=1	=1	=1	=1	=1
1GG	Pa-	1G	Pa-	1d	Pa-	1g	Pa-
2GG	-trem	2G	-trem	2B-y	-trem	2g	-trem
=2	=2	=2	=2	=2	=2	=2	=2
2GG	om-	2B-y	om-	2G	om-	4.d	om-
.	.	.	.	.	.	8e	.
4D	-ni-	4A	-ni-	4F	-ni-	4f	-ni-
4D	-po-	4B-y	-po-	4F	-po-	4d	-po-
2E-i	-ten-	2c	-ten-	2G	-ten-	2g	-ten-
=3	=3	=3	=3	=3	=3	=3	=3
1D	-tem,	1d	-tem,	1A	-tem,	1f	-tem,
2G	fa-	2d	fa-	2B-y	fa-	2g	fa-
=4	=4	=4	=4	=4	=4	=4	=4
2C	-cto-	4e-X	-cto-	4c	-cto-	4g	-cto-
.	.	4e-	-rem	4c	-rem	4g	-rem
4D	-rem	2d	ce-	4A	ce-	4f	ce-
4F	.	.	.	4F	.	4d	-li
2E-i	ce-	4c	-li	2G	-li	4e-j	et
.	.	4c	et	.	.	4g	.
!!LO:LB:g=original
=5	=5	=5	=5	=5	=5	=5	=5
4D	-li	2d	ter-	2A	et	4f	.
*	*	*	*	*	*	*lig	*
4F	.	.	.	.	.	2a	ter-
4G	.	4B-y	.	4d	ter-	.	.
4C	et	4c	.	4e-i	.	2g	.
2D	ter-	2A	.	2d	.	.	.
*	*	*	*	*	*	*Xlig	*
.	.	.	.	.	.	4f#i	.
=6	=6	=6	=6	=6	=6	=6	=6
2GG	-re,	2G	-re,	2B-y	-re,	2g	-re,
4C	vi-	4G	vi-	4c	vi-	2r	.
4C	-si-	4G	-si-	4c	-si-	.	.
4.BB-y	-bi-	4B-y	-bi-	4.d	-bi-	4.f	vi-
.	.	4B-y	-li-	.	.	.	.
8BB-y	-li-	.	.	8d	-li-	8f	-si-
=7	=7	=7	=7	=7	=7	=7	=7
2BB-y	-um	4.B-y	-um	2d	-um	4f	-bi-
.	.	.	.	.	.	4f	-li-
.	.	8A	.	.	.	.	.
4D	om-	4F	.	4B-y	om-	4f	-um
4BB-y	.	2B-y	om-	2F	.	2d	om-
4D	-ni-	.	.	.	.	.	.
4C	.	4A	-ni-	4E-j	-ni-	4e-j	-ni-
=8	=8	=8	=8	=8	=8	=8	=8
2BB-y	-um	2B-y	-um	2F	-um	2d	-um
4BB-y	et	4F	et	4r	.	4f	et
4BB-y	in-	4F	in-	4B-y	et	4d	in-
4BB-y	-vi-	4B-y	-vi-	4B-y	in-	4f	-vi-
4E-i	-si-	4c	-si-	4G	-vi-	4g	-si-
!!LO:LB:g=original
=9	=9	=9	=9	=9	=9	=9	=9
4D	-bi-	2d	-bi-	4A	-si-	4f	-bi-
4BB-y	.	.	.	4B-y	-bi-	2b-y	.
2F	-li-	2c	-li-	2c	-li-	.	.
.	.	.	.	.	.	4a	-li-
2BB-y	-um.	2B-y	-um.	2d	-um.	2b-y	-um.
=10	=10	=10	=10	=10	=10	=10	=10
2GG	Et	4d	Et	2B-y	Et	4r	.
.	.	4d	in	.	.	4b-y	Et
4GG	in	4d	u-	4B-y	in	4b-y	in
2GG	u-	4d	-num	2G	u-	2b-y	u-
*	*	*col	*	*	*	*	*
.	.	4.d	Do-	.	.	.	.
4GG	-num	.	.	4G	-num	4b-y	-num
.	.	8d	-mi-	.	.	.	.
*	*	*Xcol	*	*	*	*	*
=11	=11	=11	=11	=11	=11	=11	=11
4.D	Do-	4.d	-num	4.F	Do-	4.a	Do-
8D	-mi-	8c	.	8F	-mi-	8a	-mi-
4D	-num	4A	Je-	4F	-num	4a	-num
4D	Je-	2d	-sum	4F	Je-	4a	Je-
4E-i	-sum	.	.	4G	-sum	4g	-sum
4E-i	Chri-	4c	Chri-	4G	Chri-	4g	Chri-
=12	=12	=12	=12	=12	=12	=12	=12
2D	-stum,	2d	-stum,	1A	-stum,	2f	-stum,
2AA	.	4c	Fi-	.	.	4e	Fi-
.	.	4c	-li-	.	.	4e	-li-
2r	.	4B-y	-um	4r	.	4d	-um
.	.	[4d	De-	[4B-y	Fi-	[4f	De-
!!LO:PB:g=original
=13	=13	=13	=13	=13	=13	=13	=13
1.r	.	4d]	.	8B-L]	.	4f]	.
.	.	.	.	8AJ	.	.	.
.	.	2B-y	.	4B-y	-li-	4d	.
.	.	.	.	2F	-um	2c	.
.	.	4A	.	.	.	.	.
.	.	2B-y	-i	2f	De-	4B-y	-i
.	.	.	.	.	.	[4b-y	u-
=14	=14	=14	=14	=14	=14	=14	=14
4G	u-	4d	u-	4g	-i	4b-]	.
4A	-ni-	2c	-ni-	4e	u-	4.a	-ni-
4F	-ge-	.	.	4f	-ni-	.	.
.	.	.	.	.	.	8g	.
4G	-ni-	4B-y	-ge-	2d	-ge-	2g	-ge-
2D	-tum.	2A	-ni-	.	.	.	.
.	.	.	.	4d	-ni-	4f#i	-ni-
=15	=15	=15	=15	=15	=15	=15	=15
2E-i	Et	2G	-tum.	4B-y	-tum.	2g	-tum.
.	.	.	.	4c	.	.	.
4D	ex-	4r	.	2d	.	2r	.
2F	-Pa-	2A	Et	.	.	.	.
.	.	.	.	2r	.	2r	.
4E-i	-tre	4G	ex	.	.	.	.
=16	=16	=16	=16	=16	=16	=16	=16
4D	na-	2B-y	Pa-	1.r	.	2%3r	.
4G	-tum	.	.	.	.	.	.
4r	.	4A	-tre	.	.	.	.
4E-j	an-	4G	na-	.	.	.	.
4C	-te	4c	-tum	.	.	.	.
4F	om-	4r	.	.	.	.	.
!!LO:LB:g=original
=17	=17	=17	=17	=17	=17	=17	=17
4E-i	-ni-	4c	an-	1.r	.	1.r	.
2D	-a	4B-y	-te	.	.	.	.
*	*	*col	*	*	*	*	*
.	.	4.d	om-	.	.	.	.
2G	se-	.	.	.	.	.	.
.	.	8c	.	.	.	.	.
*	*	*Xcol	*	*	*	*	*
.	.	4A	.	.	.	.	.
4F#i	-cu-	4A	-ni-	.	.	.	.
=18	=18	=18	=18	=18	=18	=18	=18
*	*edit	*	*	*	*	*	*
4G	-la,	4G	-a	1.r	.	1.r	.
2D	se-	4B-y	se-	.	.	.	.
.	.	4A	.	.	.	.	.
4BB-y	.	2G	-cu-	.	.	.	.
2AA	-cu-	.	.	.	.	.	.
.	.	4F#i	.	.	.	.	.
=19	=19	=19	=19	=19	=19	=19	=19
*	*Xedit	*	*	*	*	*	*
2GG	-la.	2G	-la.	2r	.	2dd	De-
2r	.	2r	.	4g	De-	4dd	-um
.	.	.	.	4g	-um	4dd	de
2r	.	2r	.	4g	de	4b-y	De-
.	.	.	.	4e	De-	4g	-o,
=20	=20	=20	=20	=20	=20	=20	=20
1.r	.	1.r	.	4c	-o,	2cc	lu-
.	.	.	.	2f	lu-	.	.
.	.	.	.	.	.	4cc	-men
.	.	.	.	4f	-men	4cc	de
.	.	.	.	4f	de	4.cc	lu-
.	.	.	.	[4f	lu-	.	.
.	.	.	.	.	.	8b-y	.
!!LO:LB:g=original
=21	=21	=21	=21	=21	=21	=21	=21
1.r	.	1.r	.	8fL]	.	8aL	.
.	.	.	.	8e	.	8gJ	.
.	.	.	.	8d	.	4f	.
.	.	.	.	8cJ	.	.	.
.	.	.	.	2B-y	.	4d	.
.	.	.	.	.	.	2g	-mi-
.	.	.	.	2A	-mi-	.	.
.	.	.	.	.	.	4f#i	.
=22	=22	=22	=22	=22	=22	=22	=22
2r	.	2r	.	2G	-ne.	2g	-ne.
2D	De-	2r	.	2r	.	2r	.
4D	-um	2d	De-	2r	.	2r	.
4D	ve-	.	.	.	.	.	.
=23	=23	=23	=23	=23	=23	=23	=23
4BB-y	-rum	4d	-um	1.r	.	1.r	.
4BB-y	de	4d	ve-	.	.	.	.
4.D	De-	4B-y	-rum	.	.	.	.
.	.	4B-y	de	.	.	.	.
8CL	.	.	.	.	.	.	.
8BB-y	.	4.d	De-	.	.	.	.
8AAJ	.	.	.	.	.	.	.
[4GG	-o	.	.	.	.	.	.
.	.	8c	.	.	.	.	.
=24	=24	=24	=24	=24	=24	=24	=24
4GG]	.	8B-yL	.	1.r	.	1.r	.
.	.	8AJ	.	.	.	.	.
4C	ve-	2G	-o	.	.	.	.
4BB-y	.	.	.	.	.	.	.
4AA	.	4c	ve-	.	.	.	.
2D	.	4B-y	.	.	.	.	.
.	.	4A	.	.	.	.	.
!!LO:LB:g=original
=25	=25	=25	=25	=25	=25	=25	=25
4.GG	.	4d	.	1.r	.	2r	.
.	.	2G	.	.	.	.	.
8AA	.	.	.	.	.	.	.
8BB-yL	.	.	.	.	.	2r	.
8CJ	.	.	.	.	.	.	.
2D	.	4F	.	.	.	.	.
.	.	2E	.	.	.	2g	Ge-
4C#i	.	.	.	.	.	.	.
=26	=26	=26	=26	=26	=26	=26	=26
2D	-ro.	2D	-ro.	4A	Ge-	4f	-ni-
.	.	.	.	4F	.	2f	-tum,
2r	.	2r	.	4D	.	.	.
.	.	.	.	4F	.	4d	non
2r	.	2G	Ge-	2C	-ni-	2e	fa-
=27	=27	=27	=27	=27	=27	=27	=27
1.r	.	4F	-ni-	4D	-tum,	2d	-ctum,
.	.	2F	-tum,	2A	non	.	.
.	.	.	.	.	.	2r	.
.	.	4D	non	2d	fa-	.	.
.	.	2E	fa-	.	.	4g	con-
.	.	.	.	4c#i	.	4g	-sub-
=28	=28	=28	=28	=28	=28	=28	=28
1.r	.	2D	-ctum,	2d	-ctum,	4b-y	-stan-
.	.	.	.	.	.	4.a	-ti-
.	.	2r	.	4A	con-	.	.
.	.	.	.	.	.	8g	.
.	.	.	.	4d	-sub-	4f	.
.	.	4G	con-	4B-y	-stan-	2e	-a-
.	.	4G	-sub-	[4G	-ti-	.	.
!!LO:LB:g=original
=29	=29	=29	=29	=29	=29	=29	=29
2r	.	4B-y	-stan-	4G]	.	4d	-lem
.	.	4.A	-ti-	4.c	-a-	4.f	Pa-
4r	.	.	.	.	.	.	.
.	.	8G	.	8B-y	.	8e	.
4D	Per	4F	-a-	2A	-lem	2d	.
4E	quem	4E	-lem	.	.	.	.
4G	om-	4E	Pa-	4G	Pa-	4c#i	.
=30	=30	=30	=30	=30	=30	=30	=30
4F	-ni-	2D	-tri:	2A	-tri:	2d	-tri:
4A	-a	.	.	.	.	.	.
2G	fa-	4d	per	2B-y	per	4r	.
.	.	4B-y	quem	.	.	4g	per
2E-i	-cta	4c	om-	4G	quem	4g	quem
.	.	4c	-ni-	4G	om-	4g	om-
=31	=31	=31	=31	=31	=31	=31	=31
*lig	*	*	*	*	*	*	*
2D	sunt.	2d	-a	4A	-ni-	4f	-ni-
.	.	.	.	2d	-a	4f	-a
1G	.	4B-y	fa-	.	.	4g	fa-
.	.	4G	.	2d	fa-	2b-y	-cta
.	.	2B-y	-cta	.	.	.	.
.	.	.	.	4e	-cta	8aL	.
.	.	.	.	.	.	8gJ	.
=32	=32	=32	=32	=32	=32	=32	=32
1F	.	1c	sunt.	1f	sunt.	1a	sunt.
*Xlig	*	*	*	*	*	*	*
4r	.	4r	.	4r	.	4r	.
4D	Qui	4d	Qui	4f	Qui	4a	Qui
!!LO:LB:g=original
=33	=33	=33	=33	=33	=33	=33	=33
4D	pro-	4d	pro-	4f	pro-	4a	pro-
4D	-pter	4d	-pter	4f	-pter	4a	-pter
2F	nos	2c	nos	2f	nos	2a	nos
4.BB-y	ho-	4.B-y	ho-	4.d	ho-	4.f	ho-
8BB-y	-mi-	8B-y	-mi-	8d	-mi-	8d	-mi-
=34	=34	=34	=34	=34	=34	=34	=34
2BB-y	-nes,	2B-y	-nes,	2d	-nes,	4d	-nes,
.	.	.	.	.	.	4f	et
4BB-y	et	4F	et	4f	et	4d	pro-
4BB-y	pro-	4F	pro-	4d	pro-	4B-y	-pter
4BB-y	-pter	4F	-pter	4B-y	-pter	4f	no-
4BB-y	no-	4F	no-	4f	no-	4d	.
=35	=35	=35	=35	=35	=35	=35	=35
2BB-y	-stram	2F	-stram	4d	-stram	4.f	-stram
.	.	.	.	4B-y	sa-	.	.
.	.	.	.	.	.	8g	.
2BB-y	sa-	2D	sa-	2B-y	-lu-	4.b-y	sa-
.	.	.	.	.	.	8a	.
*lig	*	*	*	*	*	*	*
2D	-lu-	4F	-lu-	4A	-tem	4f	-lu-
.	.	4F	-tem	4d	de-	4d	-tem
=36	=36	=36	=36	=36	=36	=36	=36
2F	.	4.A	de-	4.c	-scen-	2r	.
.	.	8B-y	.	8d	.	.	.
*Xlig	*	*	*	*	*	*	*
4E	-tem	4c	.	4e	.	4r	.
4D	de-	2d	-scen-	4f	.	4a	de-
2A	-scen-	.	.	2e	-dit	4a	-scen-
.	.	4c#i	.	.	.	4a	-dit
!!LO:LB:g=original
=37	=37	=37	=37	=37	=37	=37	=37
*	*	*col	*	*	*	*	*
4D	-dit	4.d	-dit	2d	de	4f	de
2G	de	.	.	.	.	4.b-y	ce-
.	.	8c	.	.	.	.	.
*	*	*Xcol	*	*	*	*	*
.	.	4d	.	2.g	ce-	.	.
.	.	.	.	.	.	8a	.
*	*	*	*	*	*	*col	*
*	*	*col	*	*	*	*	*
2C	.	4.e-X	de	.	.	4.cc	.
.	.	8dL	.	.	.	8b-yL	.
*	*	*Xcol	*	*	*	*Xcol	*
[4F	.	8c	.	[4f	.	8a	.
.	.	8B-yJ	.	.	.	8gJ	.
=38	=38	=38	=38	=38	=38	=38	=38
4F]	.	4c	.	8fL]	.	4a	.
.	.	.	.	8e	.	.	.
*	*	*	*	*	*	*lig	*
4BB-y	.	4d	.	8d	.	2b-y	.
.	.	.	.	8cJ	.	.	.
*lig	*	*lig	*	*	*	*	*
2E-i	ce-	2G	ce-	4B-y	.	.	.
.	.	.	.	4c	.	2g	.
2D	.	2A	.	2d	.	.	.
*Xlig	*	*Xlig	*	*	*	*Xlig	*
.	.	.	.	.	.	4f#i	.
=39	=39	=39	=39	=39	=39	=39	=39
1GGl	-lis.	1Gl	-lis.	1dl	-lis.	1gl	-lis.
!!LO:LB:g=original
=40||	=40||	=40||	=40||	=40||	=40||	=40||	=40||
*M2/2	*	*M2/2	*	*M2/2	*	*M2/2	*
*omet(C|)	*	*omet(C|)	*	*omet(C|)	*	*omet(C|)	*
[1D	Et	[1A	Et	[1d	Et	[1f	Et
=41	=41	=41	=41	=41	=41	=41	=41
1D]	.	1A]	.	1d]	.	1f]	.
=42	=42	=42	=42	=42	=42	=42	=42
2D	in-	2A	in-	2d	in-	2f	in-
2D	-car-	2B-y	-car-	2f	-car-	2f	-car-
=43	=43	=43	=43	=43	=43	=43	=43
[1C	-na-	[1c	-na-	[1e-j	-na-	[1g	-na-
=44	=44	=44	=44	=44	=44	=44	=44
2C]	.	2c]	.	2e-]	.	2g]	.
2C	-tus	2c	-tus	2e-j	-tus	2g	-tus
=45	=45	=45	=45	=45	=45	=45	=45
1D;	est	1A;	est	1d;	est	1f;	est
=46	=46	=46	=46	=46	=46	=46	=46
1D	de	1A	de	1d	de	1f	de
=47	=47	=47	=47	=47	=47	=47	=47
2D	Spi-	2A	Spi-	2d	Spi-	2f	Spi-
2D	-ri-	2A	-ri-	2d	-ri-	2f	-ri-
=48	=48	=48	=48	=48	=48	=48	=48
1D	-tu	1A	-tu	1d	-tu	1f	-tu
!!LO:PB:g=original
=49	=49	=49	=49	=49	=49	=49	=49
1G	san-	1B-y	san-	1e	san-	1g	san-
=50	=50	=50	=50	=50	=50	=50	=50
1F;	-cto	1c;	-cto	1f;	-cto	1a;	-cto
=51	=51	=51	=51	=51	=51	=51	=51
1F	ex	1c	ex	1f	ex	1a	ex
=52	=52	=52	=52	=52	=52	=52	=52
1F	Ma-	1c	Ma-	1f	Ma-	1a	Ma-
=53	=53	=53	=53	=53	=53	=53	=53
1C	-ri-	1c	-ri-	1e-i	-ri-	1g	-ri-
=54	=54	=54	=54	=54	=54	=54	=54
1D	-a	1A	-a	1d	-a	1f	-a
=55	=55	=55	=55	=55	=55	=55	=55
1E-X	vir-	1G	vir-	1B-y	vir-	1g	vir-
=56	=56	=56	=56	=56	=56	=56	=56
1E-i	-gi-	1G	-gi-	1c	-gi-	1g	-gi-
=57	=57	=57	=57	=57	=57	=57	=57
1BB-y;	-ne:	1F;	-ne:	1B-y;	-ne:	1d;	-ne:
!!LO:LB:g=original
=58	=58	=58	=58	=58	=58	=58	=58
1BB-y	et	1F	et	1d	et	1b-y	et
=59	=59	=59	=59	=59	=59	=59	=59
1D	ho-	1F	ho-	1d	ho-	1a	ho-
=60	=60	=60	=60	=60	=60	=60	=60
1E-i	-mo	1G	-mo	1c	-mo	1g	-mo
=61	=61	=61	=61	=61	=61	=61	=61
1D	fa-	1A	fa-	1d	fa-	1f	fa-
=62	=62	=62	=62	=62	=62	=62	=62
*lig	*	*	*	*lig	*	*lig	*
2C	.	2c	.	2e-i	.	2g	.
2BB-y	.	[2d	.	2d	.	2b-y	.
*Xlig	*	*	*	*Xlig	*	*Xlig	*
=63	=63	=63	=63	=63	=63	=63	=63
*lig	*	*	*	*lig	*	*	*
2D	-ctus	2d]	.	2f	-ctus	2a	.
2E-i	.	2G	.	2c	.	[2g	-ctus
=64	=64	=64	=64	=64	=64	=64	=64
1D	.	1A	-ctus	1d	.	2g]	.
.	.	.	.	.	.	2f#i	.
*Xlig	*	*	*	*Xlig	*	*	*
=65	=65	=65	=65	=65	=65	=65	=65
1GGl	est.	1Gl	est.	1dl	est.	1gl	est.
!!LO:LB:g=original
=66||	=66||	=66||	=66||	=66||	=66||	=66||	=66||
*M2/2	*	*M2/2	*	*M2/2	*	*M2/2	*
*omet(C|)	*	*omet(C|)	*	*omet(C|)	*	*omet(C|)	*
1D	Cru-	1D	Cru-	1r	.	1r	.
=67	=67	=67	=67	=67	=67	=67	=67
2C	-ci-	4.E	-ci-	1r	.	1r	.
.	.	8F	.	.	.	.	.
2BB-y	.	[2G	-fi-	.	.	.	.
=68	=68	=68	=68	=68	=68	=68	=68
1AA	-fi-	2G]	.	1r	.	1r	.
.	.	2F#i	.	.	.	.	.
=69	=69	=69	=69	=69	=69	=69	=69
1GG	-xus:	1G	-xus:	2d	E-	2d	E-
.	.	.	.	2d	-ti-	2d	-ti-
=70	=70	=70	=70	=70	=70	=70	=70
1r	.	1r	.	2c	-am	4e	-am
.	.	.	.	.	.	4f	pro
.	.	.	.	2B-y	pro	[2g	no-
=71	=71	=71	=71	=71	=71	=71	=71
1r	.	1r	.	1A	no-	2g]	.
.	.	.	.	.	.	2f#i	.
=72	=72	=72	=72	=72	=72	=72	=72
2r	.	1r	.	1G	-bis:	1g	-bis:
2G	sub	.	.	.	.	.	.
!!LO:LB:g=original
=73	=73	=73	=73	=73	=73	=73	=73
2D	Pon-	2r	.	1r	.	1r	.
2D	-ti-	2d	sub	.	.	.	.
=74	=74	=74	=74	=74	=74	=74	=74
2F	-o	2A	Pon-	1r	.	2r	.
2F	Pi-	2A	-ti-	.	.	2a	sub
=75	=75	=75	=75	=75	=75	=75	=75
2.C	-la-	2c	-o	1r	.	2e	Pon-
.	.	2c	Pi-	.	.	2e	-ti-
4D	.	.	.	.	.	.	.
=76	=76	=76	=76	=76	=76	=76	=76
4E	.	2.G	-la-	1r	.	2g	-o
4F	.	.	.	.	.	.	.
[2G	-to,	.	.	.	.	2g	Pi-
.	.	4A	.	.	.	.	.
=77	=77	=77	=77	=77	=77	=77	=77
4G]	.	4B-y	.	2r	.	2.d	-la-
4F	.	4c	.	.	.	.	.
2D	.	[2d	-to	2A	sub	.	.
.	.	.	.	.	.	4e	.
=78	=78	=78	=78	=78	=78	=78	=78
1r	.	4d]	.	4.D	Pon-	4f	.
.	.	4c	.	.	.	4g	.
.	.	.	.	8E	.	.	.
.	.	2A	.	2F	.	[2a	-to
=79	=79	=79	=79	=79	=79	=79	=79
1r	.	2d	pas-	2D	-ti-	4a]	.
.	.	.	.	.	.	4g	.
.	.	2c	-sus,	2A	-o	2e	.
!!LO:PB:g=original
=80	=80	=80	=80	=80	=80	=80	=80
1r	.	2B-y	et	4r	.	2d	pas-
.	.	.	.	4G	Pi-	.	.
.	.	4A	se-	4A	.	4c	.
.	.	[4B-y	-pul-	[4G	-la-	[4d	.
=81	=81	=81	=81	=81	=81	=81	=81
2r	.	4B-]	.	8GL]	.	4d]	.
.	.	.	.	8FJ	.	.	.
.	.	2G	.	4G	.	8cL	.
.	.	.	.	.	.	8B-yJ	.
2D	et	.	.	4D	-to	2A	-sus,
.	.	4F#i	-tus	[4d	pas-	.	.
=82	=82	=82	=82	=82	=82	=82	=82
4GG	se-	1G	est.	4d]	.	2r	.
2C	-pul-	.	.	2e-i	-sus,	.	.
.	.	.	.	.	.	2g	et
4E-i	.	.	.	8dL	.	.	.
.	.	.	.	8cJ	.	.	.
=83	=83	=83	=83	=83	=83	=83	=83
4.D	.	1r	.	2d	et	4.f	se-
8C	.	.	.	.	.	8g	.
4AA	.	.	.	4c	se-	4a	.
4GG	.	.	.	[4d	-pul-	[4b-y	-pul-
=84	=84	=84	=84	=84	=84	=84	=84
4BB-y	.	2r	.	4d]	.	4b-]	.
4C	.	.	.	4B-y	.	2g	-tus
2D	-tus	2d	Et	2A	-tus	.	.
.	.	.	.	.	.	4f#i	.
=85	=85	=85	=85	=85	=85	=85	=85
1GG	est.	2d	re-	2G	est.	1g	est.
.	.	2d	-sur-	2r	.	.	.
!!LO:LB:g=original
=86	=86	=86	=86	=86	=86	=86	=86
1G	Et	1d	-re-	1B-y	Et	2r	.
.	.	.	.	.	.	2g	Et
=87	=87	=87	=87	=87	=87	=87	=87
2C	re-	1c	-xit	2G	re-	2g	re-
2C	-sur-	.	.	2G	-sur-	2g	-sur-
=88	=88	=88	=88	=88	=88	=88	=88
1C	-re-	2c	ter-	2G	-re-	2e	-re-
.	.	2c	-ti-	2G	-xit	2e	-xit
=89	=89	=89	=89	=89	=89	=89	=89
1F	-xit	2.A	-a	4F	ter-	1a	ter-
.	.	.	.	4.D	-ti-	.	.
.	.	.	.	8E	.	.	.
.	.	4B-y	.	4F	-a	.	.
=90	=90	=90	=90	=90	=90	=90	=90
2E	ter-	2c	.	2G	di-	2g	-ti-
*	*	*col	*	*	*	*	*
4.D	-ti-	4.d	di-	2A	-e,	2f	-a
8E	.	8c	.	.	.	.	.
*	*	*Xcol	*	*	*	*	*
=91	=91	=91	=91	=91	=91	=91	=91
4F	.	4A	.	1r	.	2a	di-
*	*	*lig	*	*	*	*	*
2G	-a	2B-y	-e,	.	.	.	.
.	.	.	.	.	.	2d	-e,
4D	.	[4A	.	.	.	.	.
!!LO:LB:g=original
=92	=92	=92	=92	=92	=92	=92	=92
*lig	*	*	*	*	*	*	*
2F	di-	4A]	.	2A	se-	4r	.
*	*	*Xlig	*	*	*	*	*
.	.	2d	se-	.	.	4d	se-
2E	.	.	.	2G	-cun-	2g	-cun-
.	.	4c#i	-cun-	.	.	.	.
*Xlig	*	*	*	*	*	*	*
=93	=93	=93	=93	=93	=93	=93	=93
2D	-e,	2d	-dum	2A	-dum	2f	-dum
2r	.	4c	Scri-	4A	Scri-	4e	Scri-
.	.	[4A	-ptu-	[4c	-ptu-	[4f	-ptu-
=94	=94	=94	=94	=94	=94	=94	=94
1r	.	4A]	.	4c]	.	4f]	.
.	.	8GL	.	8B-yL	.	8eL	.
.	.	8FJ	.	8AJ	.	8dJ	.
.	.	4E	.	4G	.	4c	.
*	*	*	*	*lig	*	*lig	*
.	.	[4G	.	[4B-y	.	[4e	.
=95	=95	=95	=95	=95	=95	=95	=95
1r	.	4G]	.	4B-]	.	4e]	.
.	.	4F	.	2A	.	2d	.
.	.	2E	.	.	.	.	.
*	*	*	*	*Xlig	*	*Xlig	*
.	.	.	.	4G	.	4c#i	.
=96	=96	=96	=96	=96	=96	=96	=96
2D	Et	2D	-ras.	2A	-ras.	1d	-ras.
4GG	a-	2G	Et	2r	.	.	.
4BB-y	.	.	.	.	.	.	.
=97	=97	=97	=97	=97	=97	=97	=97
4AA	-scen-	4F	a-	1r	.	2r	.
4BB-y	.	2G	-scen-	.	.	.	.
2GG	-dit	.	.	.	.	2g	Et
.	.	4B-y	-dit	.	.	.	.
=98	=98	=98	=98	=98	=98	=98	=98
1r	.	4A	in	1r	.	4f	a-
.	.	4B-y	ce-	.	.	2g	-scen-
.	.	2G	-lum.	.	.	.	.
.	.	.	.	.	.	4b-y	-dit
!!LO:LB:g=original
=99	=99	=99	=99	=99	=99	=99	=99
2D	in	1r	.	1r	.	4a	in
.	.	.	.	.	.	4b-y	ce-
2E-j	.	.	.	.	.	2g	-lum:
=100	=100	=100	=100	=100	=100	=100	=100
4.D	ce-	1r	.	2.d	Se-	1r	.
8E	.	.	.	.	.	.	.
8FL	.	.	.	.	.	.	.
8GJ	.	.	.	.	.	.	.
[4A	.	.	.	4c	-det	.	.
=101	=101	=101	=101	=101	=101	=101	=101
4A]	.	1r	.	2B-y	ad	2.dd	se-
2G	.	.	.	.	.	.	.
.	.	.	.	2A	dex-	.	.
4F#i	.	.	.	.	.	4cc	-det
=102	=102	=102	=102	=102	=102	=102	=102
2G	-lum:	1r	.	2G	-te-	2b-y	ad
2D	.	.	.	2F	-ram	2a	dex-
=103	=103	=103	=103	=103	=103	=103	=103
*	*	*	*	*	*edit	*	*
1r	.	2B-y	Et	2G	Pa-	2g	-te-
.	.	2A	i-	2D	-tris.	2f	-ram
=104	=104	=104	=104	=104	=104	=104	=104
2GG	se-	2G	-te-	4r	.	2g	Pa-
*	*	*	*	*	*Xedit	*	*
.	.	.	.	4d	Et	.	.
2D	-det	2F	-rum	2f	i-	2d	-tris.
=105	=105	=105	=105	=105	=105	=105	=105
4r	.	4G	ven-	4d	.	1r	.
4G	ad	2B-y	-tu-	4B-y	.	.	.
2F	.	.	.	2c	-te-	.	.
.	.	4A	-rus	.	.	.	.
!!LO:PB:g=original
=106	=106	=106	=106	=106	=106	=106	=106
2G	dex-	2B-y	est	2B-y	-rum	2b-y	Et
4D	-te-	2d	cum	2r	.	2a	i-
4F	-ram	.	.	.	.	.	.
=107	=107	=107	=107	=107	=107	=107	=107
2E-i	Pa-	2e-i	glo-	2c	ven-	2g	-te-
2D	-tris.	2f	.	2d	-tu-	2f	-rum
=108	=108	=108	=108	=108	=108	=108	=108
4C	Et	4e-i	-ri-	4e-i	-rus	4g	ven-
4BB-y	i-	4d	.	2.f	est	2b-y	-tu-
2F	-te-	2c	-a	.	.	.	.
.	.	.	.	.	.	4a	-rus
=109	=109	=109	=109	=109	=109	=109	=109
2BB-y	-rum	2B-y	ju-	2d	cum	2b-y	est
2C	ven-	2G	.	2e-i	glo-	2r	.
=110	=110	=110	=110	=110	=110	=110	=110
2AA	-tu-	2A	-di-	4c	-ri-	1r	.
.	.	.	.	4.f	-a	.	.
*	*	*lig	*	*	*	*	*
2D	-rus	2F	-ca-	.	.	.	.
.	.	.	.	8e-iL	.	.	.
.	.	.	.	8d	.	.	.
.	.	.	.	8cJ	.	.	.
=111	=111	=111	=111	=111	=111	=111	=111
*	*	*	*	*	*edit	*	*
2GG	est	2G	.	4.B-y	ju-	1r	.
.	.	.	.	8c	.	.	.
*	*	*Xlig	*	*	*	*	*
4C	cum	4E-i	.	4e-i	-di-	.	.
[4BB-y	glo-	4F	.	[4d	-ca-	.	.
=112	=112	=112	=112	=112	=112	=112	=112
4BB-]	.	4D	.	4d]	.	1r	.
8AAL	-ri-	2G	.	8cL	.	.	.
8GGJ	.	.	.	8B-yJ	.	.	.
2D	-a	.	.	2A	.	.	.
.	.	4F#i	.	.	.	.	.
!!LO:LB:g=original
=113	=113	=113	=113	=113	=113	=113	=113
2GG	ju-	1G	-re	2G	-re	2b-y	vi-
2C	-di-	.	.	2r	.	2g	-vos
=114	=114	=114	=114	=114	=114	=114	=114
2BB-y	-ca-	2B-y	vi-	2r	.	2dd	et
*	*	*	*	*	*Xedit	*	*
2E-i	-re	2G	-vos	2g	vi-	2b-y	mor-
=115	=115	=115	=115	=115	=115	=115	=115
4r	.	2d	et	2f	-vos	4a	.
4D	vi-	.	.	.	.	2b-y	-tu-
*	*	*	*	*col	*	*	*
2G	-vos	2B-y	mor-	4.d	et	.	.
.	.	.	.	.	.	8aL	.
.	.	.	.	8e	.	8gJ	.
*	*	*	*	*Xcol	*	*	*
=116	=116	=116	=116	=116	=116	=116	=116
4F	et	4c	.	4f	mor-	4a	.
4G	mor-	4G	.	2.d	-tu-	2g	.
2D	-tu-	2A	-tu-	.	.	.	.
.	.	.	.	.	.	4f#i	.
=117	=117	=117	=117	=117	=117	=117	=117
1GG	-os:	1G	-os:	1d	-os.	1g	-os.
=118	=118	=118	=118	=118	=118	=118	=118
2r	.	2G	cu-	1r	.	1r	.
2G	cu-	2B-y	-jus	.	.	.	.
=119	=119	=119	=119	=119	=119	=119	=119
2D	-jus	2A	re-	1r	.	1r	.
2E	re-	2G	-gni	.	.	.	.
=120	=120	=120	=120	=120	=120	=120	=120
4D	-gni	2A	non	1r	.	1r	.
4F	non	.	.	.	.	.	.
4E	e-	4G	.	.	.	.	.
4D	-rit	[4A	e-	.	.	.	.
!!LO:LB:g=original
=121	=121	=121	=121	=121	=121	=121	=121
4F	fi-	8AL]	.	4r	.	1r	.
.	.	8B-yJ	.	.	.	.	.
4C	.	2c	.	2G	Et	.	.
2D	.	.	.	.	.	.	.
.	.	4Bni	.	4F	in	.	.
=122	=122	=122	=122	=122	=122	=122	=122
*lig	*	*	*	*	*	*	*
[1C	-nis.	[1c	-rit	2G	Spi-	1e	Et
.	.	.	.	2G	-ri-	.	.
=123	=123	=123	=123	=123	=123	=123	=123
1C]	.	2c]	.	1G	-tum	2e	in
.	.	2e	fi-	.	.	2e	Spi-
=124	=124	=124	=124	=124	=124	=124	=124
1GG	.	[1d	-nis.	1G	San-	2g	-ri-
.	.	.	.	.	.	2g	-tum
*Xlig	*	*	*	*	*	*	*
=125	=125	=125	=125	=125	=125	=125	=125
1r	.	1d]	.	2D	-ctum,	2f	San-
.	.	.	.	2d	Do-	2f	-ctum,
=126	=126	=126	=126	=126	=126	=126	=126
1r	.	1r	.	2c	.	4.e	Do-
.	.	.	.	.	.	8f	.
.	.	.	.	4B-y	.	4g	.
.	.	.	.	4A	.	[4a	-mi-
=127	=127	=127	=127	=127	=127	=127	=127
1r	.	1r	.	4.B-y	-mi-	4a]	.
.	.	.	.	.	.	4g	.
.	.	.	.	16ALL	.	.	.
.	.	.	.	16GJJ	.	.	.
.	.	.	.	2F	-num,	2a	-num,
!!LO:LB:g=original
=128	=128	=128	=128	=128	=128	=128	=128
2C	Et	2c	et	2G	et	2g	et
2C	vi-	2c	vi-	4G	vi-	2g	vi-
.	.	.	.	4G	-vi-	.	.
=129	=129	=129	=129	=129	=129	=129	=129
2D	-vi-	2A	-vi-	4D	-fi-	2f	-vi-
.	.	.	.	2d	-can-	.	.
2E	-fi-	2G	-fi-	.	.	2e	-fi-
.	.	.	.	4c#i	.	.	.
=130	=130	=130	=130	=130	=130	=130	=130
2D	-can-	2.A	-can-	1d	-tem:	2.f	-can-
2D	-tem:	.	.	.	.	.	.
.	.	4B-y	.	.	.	4g	.
=131	=131	=131	=131	=131	=131	=131	=131
1r	.	2c	.	1r	.	2a	.
.	.	4d	.	.	.	4f	.
.	.	[4e	.	.	.	[4g	.
=132	=132	=132	=132	=132	=132	=132	=132
1r	.	4e]	.	1r	.	4g]	.
.	.	2d	.	.	.	4f	.
.	.	.	.	.	.	2e	.
.	.	4c#i	.	.	.	.	.
=133	=133	=133	=133	=133	=133	=133	=133
2D	qui	2d	-tem:	2A	qui	2d	-tem:
2D	ex	2d	qui	2A	ex	2f	qui
=134	=134	=134	=134	=134	=134	=134	=134
2F	Pa-	2c	ex	2A	Pa-	2f	ex
2F	-tre	2c	Pa-	2A	-tre	2f	Pa-
!!LO:PB:g=original
=135	=135	=135	=135	=135	=135	=135	=135
2.BB-y	Fi-	2B-y	-tre	2.F	Fi-	2d	-tre
.	.	[2B-y	Fi-	.	.	[2f	Fi-
4BB-y	-li-	.	.	4F	-li-	.	.
=136	=136	=136	=136	=136	=136	=136	=136
1BB-y	-o-	4B-]	.	4F	-o-	4f]	.
.	.	4B-y	-li-	4.B-y	-que	4f	-li-
.	.	2B-y	-o-	.	.	4.f	-o-
.	.	.	.	8cL	.	.	.
.	.	.	.	8d	.	.	.
.	.	.	.	8eJ	.	8g	.
=137	=137	=137	=137	=137	=137	=137	=137
1FF	-que.	1A	-que.	2f	.	4.a	.
.	.	.	.	.	.	8b-y	.
*	*	*	*	*col	*	*	*
.	.	.	.	4.f	pro-	2cc	.
.	.	.	.	8e	.	.	.
*	*	*	*	*Xcol	*	*	*
=138	=138	=138	=138	=138	=138	=138	=138
1r	.	1r	.	4f	.	4a	-que
.	.	.	.	2g	-ce-	2b-y	pro-
.	.	.	.	8fL	.	8aL	.
.	.	.	.	8e-jJ	.	8gJ	.
=139	=139	=139	=139	=139	=139	=139	=139
1r	.	1r	.	2d	.	2f	.
.	.	.	.	4c	.	4e-j	.
.	.	.	.	[4d	.	4d	.
=140	=140	=140	=140	=140	=140	=140	=140
*	*	*	*	*	*	*lig	*
4r	.	1r	.	4d]	.	2B-y	-ce-
4BB-y	Qui	.	.	2B-y	.	.	.
2F	cum	.	.	.	.	2c	.
.	.	.	.	4A	.	.	.
*	*	*	*	*	*	*Xlig	*
=141	=141	=141	=141	=141	=141	=141	=141
2BB-y	Pa-	2B-y	Qui	2B-y	-dit.	2B-y	-dit.
2BB-y	-tre	2B-y	cum	2r	.	2b-y	Qui
!!LO:LB:g=original
=142	=142	=142	=142	=142	=142	=142	=142
2BB-y	et	2d	Pa-	2F	Qui	2b-y	cum
2BB-y	Fi-	2d	-tre	2F	cum	2b-y	Pa-
=143	=143	=143	=143	=143	=143	=143	=143
2F	-li-	2c	et	2A	Pa-	2a	-tre
2F	-o	2c	Fi-	4A	-tre	2a	et
.	.	.	.	4A	et	.	.
=144	=144	=144	=144	=144	=144	=144	=144
2G	si-	2B-y	-li-	2B-y	Fi-	2d	Fi-
2G	-mul	2B-y	-o	2G	-li-	2d	-li-
=145	=145	=145	=145	=145	=145	=145	=145
2D	ad-	2d	si-	2F	-o	2f	-o
2D	-o-	4c	-mul	2D	si-	2f	si-
.	.	[4B-y	ad-	.	.	.	.
=146	=146	=146	=146	=146	=146	=146	=146
1C	-ra-	4B-]	.	2E-i	-mul	2e-i	-mul
.	.	4c	-o-	.	.	.	.
.	.	4.A	-ra-	2E-i	ad-	2e-i	ad-
.	.	8G	.	.	.	.	.
=147	=147	=147	=147	=147	=147	=147	=147
1BB-y	-tur:	1B-y	-tur:	2F	-o-	4.d	-o-
.	.	.	.	.	.	8e-i	.
.	.	.	.	2F	-ra-	2f	.
=148	=148	=148	=148	=148	=148	=148	=148
1r	.	1r	.	4G	.	4e-i	.
.	.	.	.	4D	.	2d	-ra-
.	.	.	.	2E-i	.	.	.
.	.	.	.	.	.	4c	.
!!LO:LB:g=original
=149	=149	=149	=149	=149	=149	=149	=149
1r	.	1r	.	2D	-tur,	2d	-tur,
.	.	.	.	2r	.	2g	et
=150	=150	=150	=150	=150	=150	=150	=150
1r	.	1r	.	2D	et	2f	con-
.	.	.	.	2G	con-	2b-y	-glo-
=151	=151	=151	=151	=151	=151	=151	=151
1r	.	1r	.	2F	-glo-	2a	-ri-
.	.	.	.	2B-y	-ri-	2dd	-fi-
=152	=152	=152	=152	=152	=152	=152	=152
1r	.	1r	.	2A	-fi-	2cc	-ca-
.	.	.	.	2d	-ca-	4b-y	.
.	.	.	.	.	.	[4a	.
=153	=153	=153	=153	=153	=153	=153	=153
1r	.	1r	.	4B-y	.	4a]	.
.	.	.	.	4c	.	2g	.
.	.	.	.	2A	.	.	.
.	.	.	.	.	.	4f#i	.
=154	=154	=154	=154	=154	=154	=154	=154
2C	qui	2c	qui	2G	-tur:	1g	-tur:
2C	lo-	2c	lo-	2G	qui	.	.
=155	=155	=155	=155	=155	=155	=155	=155
1C	-cu-	2c	-cu-	2G	lo-	2g	qui
.	.	2G	-tus	[2c	-cu-	2g	lo-
!!LO:LB:g=original
=156	=156	=156	=156	=156	=156	=156	=156
2E-i	.	1G	est	2c]	.	2g	-cu-
2E-i	-tus	.	.	2c	-tus	2g	-tus
=157	=157	=157	=157	=157	=157	=157	=157
2D	est	2A	per	2d	est.	1f	est.
2F	per	2A	Pro-	2r	.	.	.
=158	=158	=158	=158	=158	=158	=158	=158
*col	*	*	*	*	*	*	*
4.G	Pro-	2B-y	-phe-	1r	.	1r	.
8E	.	.	.	.	.	.	.
*Xcol	*	*	*	*	*	*	*
4F	-phe-	4A	.	.	.	.	.
8EL	.	[4c	.	.	.	.	.
8DJ	.	.	.	.	.	.	.
=159	=159	=159	=159	=159	=159	=159	=159
4.C	.	4c]	.	1r	.	1r	.
.	.	8B-yL	.	.	.	.	.
8D	.	8AJ	.	.	.	.	.
*lig	*	*	*	*	*	*	*
*	*edit	*	*	*	*	*	*
2E-j	-tas,	2G	.	.	.	.	.
=160	=160	=160	=160	=160	=160	=160	=160
2D	.	4F	.	1r	.	1r	.
.	.	2A	.	.	.	.	.
*Xlig	*	*	*	*	*	*	*
4.AA	per	.	.	.	.	.	.
.	.	8GL	.	.	.	.	.
8BB-y	.	8FJ	.	.	.	.	.
=161	=161	=161	=161	=161	=161	=161	=161
4C	.	4E	.	1r	.	1r	.
4AA	.	4F	.	.	.	.	.
*	*	*	*edit	*	*	*	*
4BB-y	.	4D	-tas,	.	.	.	.
[4GG	Pro-	[4d	Pro-	.	.	.	.
=162	=162	=162	=162	=162	=162	=162	=162
4GG]	.	4d]	.	1r	.	1r	.
4.AA	-phe-	4.c	-phe-	.	.	.	.
8BB-y	.	8B-y	.	.	.	.	.
4C	.	[4A	.	.	.	.	.
!!LO:PB:g=original
=163	=163	=163	=163	=163	=163	=163	=163
4D	.	4A]	.	1r	.	1r	.
4GG	.	2G	.	.	.	.	.
2AA	.	.	.	.	.	.	.
.	.	4F#i	.	.	.	.	.
=164	=164	=164	=164	=164	=164	=164	=164
*	*Xedit	*	*Xedit	*	*	*	*
2GG	-tas.	2G	-tas.	1d	Et	2r	.
2GG	Et	2B-y	Et	.	.	2g	Et
=165	=165	=165	=165	=165	=165	=165	=165
2GG	u-	2B-y	u-	2d	u-	2g	u-
2GG	-nam	2B-y	-nam	2B-y	-nam	2g	-nam
=166	=166	=166	=166	=166	=166	=166	=166
2C	san-	2c	san-	2G	san-	2e	san-
4C	-ctam	4c	-ctam	4G	-ctam	4e	-ctam
4C	ca-	4c	ca-	4G	ca-	4e	ca-
=167	=167	=167	=167	=167	=167	=167	=167
2E-i	-tho-	2c	-tho-	2G	-tho-	2g	-tho-
2E-i	-li-	2c	-li-	2G	-li-	2g	-li-
=168	=168	=168	=168	=168	=168	=168	=168
2D	-cam	2d	-cam	2A	-cam	2f	-cam
2F	et	4r	.	2r	.	2a	et
.	.	[4d	et	.	.	.	.
=169	=169	=169	=169	=169	=169	=169	=169
2G	a-	4d]	.	2d	et	2b-y	a-
.	.	2B-y	a-	.	.	.	.
2E-i	-po-	.	.	2e-i	a-	2g	-po-
.	.	[4c	-po-	.	.	.	.
!!LO:LB:g=original
=170	=170	=170	=170	=170	=170	=170	=170
2F	-sto-	4c]	.	2c	-po-	2a	-sto-
.	.	2A	-sto-	.	.	.	.
2D	-li-	.	.	2d	-sto-	2f	-li-
.	.	[4B-y	-li-	.	.	.	.
=171	=171	=171	=171	=171	=171	=171	=171
2E-i	-cam	4B-]	.	2B-y	-li-	2g	-cam
.	.	2G	-cam	.	.	.	.
2C	Ec-	.	.	2c	-cam	2e-j	Ec-
.	.	[4A	Ec-	.	.	.	.
=172	=172	=172	=172	=172	=172	=172	=172
2D	-cle-	4A]	.	2A	Ec-	2f	-cle-
.	.	2F	-cle-	.	.	.	.
2BB-y	.	.	.	2B-y	-cle-	2d	.
.	.	[4G	.	.	.	.	.
=173	=173	=173	=173	=173	=173	=173	=173
2C	.	4G]	.	2G	.	2e-j	.
.	.	4E-j	.	.	.	.	.
4AA	.	4F	.	4A	.	4c	.
[4BB-y	.	[4D	.	4F	.	[4d	.
=174	=174	=174	=174	=174	=174	=174	=174
4BB-]	.	4D]	.	2G	.	4d]	.
4GG	.	2G	-si-	.	.	8cL	.
.	.	.	.	.	.	8B-yJ	.
2D	-si-	.	.	4D	.	2A	-si-
.	.	4F#i	.	4F	.	.	.
=175	=175	=175	=175	=175	=175	=175	=175
[1GG	-am.	[1G	-am.	2E-i	.	[1G	-am.
.	.	.	.	2D	-si-	.	.
=176	=176	=176	=176	=176	=176	=176	=176
1GG]	.	1G]	.	1D	-am.	1G]	.
!!LO:LB:g=original
=177||	=177||	=177||	=177||	=177||	=177||	=177||	=177||
*M3/2	*	*M3/2	*	*M3/2	*	*M3/2	*
*omet(O)	*	*omet(O)	*	*omet(O)	*	*omet(O)	*
!!LO:TX:a:t=[C |3]
*	*	*	*	*col	*	*	*
*	*	*col	*	*	*	*	*
*col	*	*	*	*	*	*	*
1GG	Con-	1G	Con-	1d	Con-	1.r	.
[2GG	-fi-	[2D	-fi-	[2d	-fi-	.	.
=178	=178	=178	=178	=178	=178	=178	=178
2GG]	.	4D]	.	2d]	.	1.r	.
.	.	4E	.	.	.	.	.
*	*	*	*	*lig	*	*	*
1AA	-te-	1F	-te-	2c	-te-	.	.
*Xcol	*	*Xcol	*	*	*	*	*
.	.	.	.	2A	.	.	.
*	*	*	*	*Xcol	*	*	*
*	*	*	*	*Xlig	*	*	*
=179	=179	=179	=179	=179	=179	=179	=179
*	*	*	*	*	*	*col	*
2GG	-or	2G	-or	1B-y	-or	2g	U-
2GG	u-	2G	u-	.	.	2g	-num
2GG	-num	2G	-num	2G	u-	[2d	ba-
=180	=180	=180	=180	=180	=180	=180	=180
2GG	ba-	2G	ba-	2d	-num	4d]	.
.	.	.	.	.	.	4e	.
1D	-pti-	1A	-pti-	2d	ba-	1f	-pti-
*	*	*	*	*	*	*Xcol	*
.	.	.	.	2d	-pti-	.	.
=181	=181	=181	=181	=181	=181	=181	=181
!!LO:S:dash
[(1.GG	-sma	1G	-sma	2.B-y	.	1.g	-sma
.	.	.	.	4c	.	.	.
.	.	2r	.	2d	.	.	.
=182	=182	=182	=182	=182	=182	=182	=182
[1.GG]	.	2d	in	1G	-sma	1.r	.
.	.	2d	re-	.	.	.	.
.	.	2d	-mis-	2r	.	.	.
!!LO:LB:g=original
=183	=183	=183	=183	=183	=183	=183	=183
1GG)]	.	2.B-y	-si-	2.d	in	2dd	in
.	.	.	.	.	.	2dd	re-
.	.	4c	.	4e	re-	.	.
2r	.	2d	-o-	2f	-mis-	2dd	-mis-
=184	=184	=184	=184	=184	=184	=184	=184
1GG	in	1.G	-nem	2.g	-si-	2.b-y	-si-
.	.	.	.	4f	.	4cc	.
2BB-y	re-	.	.	2d	-o-	2dd	-o-
=185	=185	=185	=185	=185	=185	=185	=185
1C	-mis-	1.r	.	1e	-nem	1g	-nem
*	*	*	*	*	*	*	*edit
2C	-si-	.	.	2e	pec-	2e	pec-
=186	=186	=186	=186	=186	=186	=186	=186
2D	-o-	2.F	pec-	2.f	-ca-	2.a	-ca-
2D	-nem	.	.	.	.	.	.
.	.	4G	.	4e	.	4g	.
2D	pec-	2A	.	4d	.	4f	-to-
.	.	.	.	4c	.	4e	.
=187	=187	=187	=187	=187	=187	=187	=187
2.BB-y	-ca-	2.B-y	-ca-	2.d	-to-	1d	-rum,
4C	.	4A	.	4c	.	.	.
*	*	*	*	*	*	*	*Xedit
2D	.	2F	.	2A	.	2a	pec-
=188	=188	=188	=188	=188	=188	=188	=188
*lig	*	*	*	*	*	*	*
2GG	-to-	1G	-to-	2G	.	1b-y	-ca-
2BB-y	.	.	.	4D	.	.	.
.	.	.	.	2G	.	.	.
*Xlig	*	*	*	*	*	*	*
2AA	.	2A	.	.	.	2cc	.
.	.	.	.	4F#i	.	.	.
!!LO:PB:g=original
=189	=189	=189	=189	=189	=189	=189	=189
*	*	*	*	*	*edit	*	*
1GG	-rum,	1B-y	.	2G	-rum,	1dd	.
.	.	.	.	2B-y	pec-	.	.
2r	.	2c	.	2A	-ca-	2cc	.
=190	=190	=190	=190	=190	=190	=190	=190
*	*	*	*	*lig	*	*	*
*	*edit	*	*	*	*	*	*
2G	pec-	1d	.	2G	-to-	2b-y	.
1F	-ca-	.	.	1f	.	2.a	.
.	.	2c	.	.	.	.	.
.	.	.	.	.	.	4g	.
*	*	*	*	*Xlig	*	*	*
=191	=191	=191	=191	=191	=191	=191	=191
*	*	*	*	*	*Xedit	*	*
2G	.	2B-y	.	1d	-rum.	1g	-to-
1D	-to-	1A	.	.	.	.	.
.	.	.	.	2r	.	2f#i	.
=192	=192	=192	=192	=192	=192	=192	=192
1GG	-rum.	1.G	-rum.	2g	Et	1g	-rum.
.	.	.	.	2g	ex-	.	.
2r	.	.	.	2g	-spe-	2r	.
=193	=193	=193	=193	=193	=193	=193	=193
*	*Xedit	*	*	*	*	*	*
2G	Et	1.r	.	2d	-cto	1.r	.
2G	ex-	.	.	2d	re-	.	.
2G	-spe-	.	.	2e	-sur-	.	.
=194	=194	=194	=194	=194	=194	=194	=194
1D	-cto	1.r	.	1f	-re-	1.r	.
2AA	re-	.	.	2c	-cti-	.	.
!!LO:LB:g=original
=195	=195	=195	=195	=195	=195	=195	=195
1.GG	-sur-	1.r	.	1B-y	-o-	2g	Et
.	.	.	.	.	.	2g	ex-
.	.	.	.	2G	-nem	2g	-spe-
=196	=196	=196	=196	=196	=196	=196	=196
1GG	-re-	2G	Et	1B-y	mor-	2d	-cto
.	.	2G	ex-	.	.	2d	re-
2C	-cti-	2G	-spe-	2c	-tu-	2e	-sur-
=197	=197	=197	=197	=197	=197	=197	=197
1BB-y	-o-	2D	-cto	1d	-o-	1f	-re-
.	.	2D	re-	.	.	.	.
2C	.	2E	-sur-	2c	.	2e	-cti-
=198	=198	=198	=198	=198	=198	=198	=198
*	*	*	*	*	*edit	*	*
1D	-nem	1F	-re-	1A	-rum,	2d	-o-
.	.	.	.	.	.	2f	.
2C	.	2E	-cti-	2c	mor-	2g	-nem
=199	=199	=199	=199	=199	=199	=199	=199
*	*	*	*	*lig	*	*	*
2D	mor-	2D	-o-	2A	-tu-	2f	mor-
1C	-tu-	2G	-nem	1c	.	2.e	-tu-
.	.	2G	mor-	.	.	.	.
.	.	.	.	.	.	4d	.
*	*	*	*	*Xlig	*	*	*
=200	=200	=200	=200	=200	=200	=200	=200
2D	-o-	2F	-tu-	1.A	-o-	1d	-o-
2AA	-rum.	1E	-o-	.	.	.	.
2AA	Et	.	.	.	.	2c#i	.
!!LO:LB:g=original
=201	=201	=201	=201	=201	=201	=201	=201
1BB-y	vi-	1D	-rum.	2F	.	1d	-rum.
.	.	.	.	4D	.	.	.
.	.	.	.	2G	.	.	.
2AA	-tam	2A	Et	.	.	2r	.
.	.	.	.	4F#i	.	.	.
=202	=202	=202	=202	=202	=202	=202	=202
*	*	*	*	*	*Xedit	*	*
1GG	ven-	1B-y	vi-	1G	-rum.	2r	.
.	.	.	.	.	.	2r	.
2FF	-tu-	2A	-tam	2c	Et	2a	Et
=203	=203	=203	=203	=203	=203	=203	=203
1GG	-ri	1G	ven-	2B-y	vi-	1b-y	vi-
.	.	.	.	4d	.	.	.
.	.	.	.	4e	.	.	.
2AA	se-	2F	-tu-	2f	.	2a	-tam
=204	=204	=204	=204	=204	=204	=204	=204
*lig	*	*	*	*	*	*	*
2BB-y	-cu-	2G	-ri	1d	-tam	1g	ven-
2GG	.	2B-y	se-	.	.	.	.
*Xlig	*	*	*	*	*	*	*
2D	-li.	2A	-cu-	2r	.	2f#j	-tu-
=205	=205	=205	=205	=205	=205	=205	=205
1GG	A-	1G	-li.	1B-y	ven-	2g	-ri
.	.	.	.	.	.	2b-y	se-
2D	.	2r	.	2F	-tu-	2a	-cu-
=206	=206	=206	=206	=206	=206	=206	=206
*	*	*lig	*	*	*	*	*
*	*edit	*	*	*	*	*	*
1E-i	-men,	2G	A-	1G	-ri	1g	-li.
.	.	2B-y	.	.	.	.	.
*	*	*Xlig	*	*	*	*	*
2E-i	a-	2c	.	2G	se-	2r	.
!!LO:LB:g=original
=207	=207	=207	=207	=207	=207	=207	=207
*	*	*	*	*	*	*lig	*
1D	.	2.d	.	2A	.	2f	A-
.	.	.	.	2D	.	2b-y	.
.	.	4c	.	.	.	.	.
*	*	*	*	*	*	*Xlig	*
2C	.	2A	.	2E	-cu-	2cc	.
=208	=208	=208	=208	=208	=208	=208	=208
*	*	*lig	*	*	*	*	*
*	*	*	*edit	*	*	*	*
2BB-y	-men,	2B-y	-men,	2F	-li.	2.dd	.
2r	.	2G	.	2G	A-	.	.
.	.	.	.	.	.	4cc	.
*	*	*Xlig	*	*	*	*	*
2AA	a-	2c	a-	2A	.	2a	.
=209	=209	=209	=209	=209	=209	=209	=209
*	*	*lig	*	*	*	*	*
*	*	*	*	*	*	*	*edit
2GG	.	2B-y	.	2B-y	.	2b-y	-men,
1C	-men,	2.e-X	.	2.c	.	2g	.
.	.	.	.	.	.	[2cc	a-
*	*	*Xlig	*	*	*	*	*
.	.	4d	.	4d	.	.	.
=210	=210	=210	=210	=210	=210	=210	=210
2C	a-	2.c	.	2e	.	4cc]	.
.	.	.	.	.	.	4b-y	.
*	*	*	*	*	*edit	*	*
1F	.	.	.	1f	-men,	4a	.
.	.	4B-y	.	.	.	4g	.
*	*	*lig	*	*	*	*	*
.	.	2c	.	.	.	2a	.
=211	=211	=211	=211	=211	=211	=211	=211
*lig	*	*	*	*	*	*	*
2D	.	2d	.	2f	a-	1b-y	.
*	*	*Xlig	*	*	*	*	*
*	*	*	*	*lig	*	*	*
2G	.	2B-y	.	2d	.	.	.
*Xlig	*	*	*	*	*	*	*
2C	.	2c	.	2e-j	.	2g	.
*	*	*	*	*Xlig	*	*	*
=212	=212	=212	=212	=212	=212	=212	=212
1.D	.	1.A	.	1.d	.	1.f#i	.
=213	=213	=213	=213	=213	=213	=213	=213
*	*Xedit	*	*Xedit	*	*Xedit	*	*Xedit
1GGl	-men.	1Gl	-men.	1dl	-men.	1gl	-men.
==	==	==	==	==	==	==	==
*-	*-	*-	*-	*-	*-	*-	*-
!!!system-decoration: [*]
!!!RDF**kern: i = editorial accidental
!!!RDF**kern: j = editorial accidental, optional, paren up
!!!RDF**kern: l = terminal breve
!!!PTL: Gaspar van Weerbeke: Collected Works. II. Masses, Part 2
!!!ISBN: 978-1-59551-518-6
!!!PPR: American Institute of Musicology
!!!PC#: Corpus Mensurabilis Musicae 106/II.2
!!!PDT: 2018
!!!PED: Kolb, Paul
!!!YEC: Copyright 2016, Kolb, Paul
!!!YEM: CC-BY-NC 4.0 (https://creativecommons.org/licenses/by-nc/4.0/legalcode)
!!!EED: Zybina, Karina
!!!EEV: 2021/11/16
!!!muse2ps: C^@{COM}^i2I150v90,90,90,120c122z18l2700t130
